X: 29230
T: New Helmsman, The
R: reel
M: 4/4
K: Eminor
|:E2 B2 Bc B2|AFDE F2 D2|E2 B2 Bc B2|d4 D4|
E2 B2 Bc B2|AFDE F2 D2|AGFE DEF/E/D|1 E6 B,2:|2 E6 B2||
|:e2 ef ed B2|edef g3e|d2 de dB GB|dc BA G2 D2|
E2 EF G2 A2|B d3 e4|BAGF E2 D2|1 E4 E2 z d:|2 E6 D2||

